icons-dark/actions/24/mail-flag.svg

<svg xmlns="http://www.w3.org/2000/svg" viewBox="0 0 24 24">
  <defs id="defs3051">
    <style type="text/css" id="current-color-scheme">
      .ColorScheme-Text {
        color:#f2f2f2
      }
      </style>
  </defs>
  <a transform="translate(1,1)">
 <path 
    style="fill:currentColor;fill-opacity:1;stroke:none" 
    d="M 1 3 L 1 4 L 1 12 L 1 18 L 1 18.414062 L 1 19 L 2 19 L 8 19 L 14 19 L 14 18 L 8 18 L 2 18 L 2 17.414062 L 2.4628906 16.951172 L 8.7304688 10.683594 L 10.183594 12.134766 L 10.998047 12.949219 L 11 12.949219 L 11.816406 12.134766 L 13.269531 10.683594 L 14.585938 12 L 16 12 L 13.976562 9.9765625 L 19.728516 4.2226562 L 19.951172 4 L 20 4 L 20 4.2226562 L 20 12 L 21 12 L 21 3 L 20.951172 3 L 20 3 L 19.537109 3 L 2.4628906 3 L 2 3 L 1 3 z M 2 4 L 2.0488281 4 L 2.2714844 4.2226562 L 8.0234375 9.9765625 L 2 16 L 2 12 L 2 4.2226562 L 2 4 z M 3.4628906 4 L 18.537109 4 L 11 11.537109 L 3.4628906 4 z M 15 13 L 15 19 L 16 19 L 16 17 L 18 16 L 18 18 L 22 16 L 18 15 L 18 14 L 16 13 L 15 13 z "
    class="ColorScheme-Text"
    />  
</a>
</svg>

<?xml version="1.0" encoding="UTF-8" standalone="no"?>
<!-- Created with Inkscape (http://www.inkscape.org/) -->

<svg
   xmlns:dc="http://purl.org/dc/elements/1.1/"
   xmlns:cc="http://creativecommons.org/ns#"
   xmlns:rdf="http://www.w3.org/1999/02/22-rdf-syntax-ns#"
   xmlns:svg="http://www.w3.org/2000/svg"
   xmlns="http://www.w3.org/2000/svg"
   xmlns:sodipodi="http://sodipodi.sourceforge.net/DTD/sodipodi-0.dtd"
   xmlns:inkscape="http://www.inkscape.org/namespaces/inkscape"
   width="24"
   height="24"
   id="svg3869"
   version="1.1"
   inkscape:version="0.91 r13725"
   sodipodi:docname="mail-flag.svg">
  <defs
     id="defs3871">
    <linearGradient
       id="linearGradient3257">
      <stop
         offset="0"
         style="stop-color:#a50000;stop-opacity:1"
         id="stop3259" />
      <stop
         offset="1"
         style="stop-color:#e73800;stop-opacity:1"
         id="stop3261" />
    </linearGradient>
    <clipPath
       clipPathUnits="userSpaceOnUse"
       id="clipPath4210">
      <rect
         y="1024.3622"
         x="-7"
         height="34"
         width="34"
         id="rect4212"
         style="opacity:1;fill:#0000ff;fill-opacity:0.51376145;stroke:none;stroke-opacity:1" />
    </clipPath>
    <clipPath
       clipPathUnits="userSpaceOnUse"
       id="clipPath4160">
      <rect
         style="opacity:1;fill:#aade87;fill-opacity:0.47247709;stroke:none;stroke-opacity:1"
         id="rect4162"
         width="32"
         height="32.000015"
         x="-6"
         y="1028.3619" />
    </clipPath>
    <clipPath
       id="clipPath4160-4"
       clipPathUnits="userSpaceOnUse">
      <rect
         y="1023.3622"
         x="7"
         height="1"
         width="1"
         id="rect4162-5"
         style="opacity:1;fill:#f2f2f2;fill-opacity:1;stroke:none;stroke-opacity:1" />
    </clipPath>
    <clipPath
       clipPathUnits="userSpaceOnUse"
       id="clipPath16">
      <path
         d="m 0,706.465 1490.926,0 L 1490.926,0 0,0 0,706.465 Z"
         id="path18" />
    </clipPath>
    <clipPath
       clipPathUnits="userSpaceOnUse"
       id="clipPath24">
      <path
         d="m 22.1953,686.117 1447.7347,0 0,-667.1902 -1447.7347,0 L 22.1953,686.117 Z"
         id="path26" />
    </clipPath>
    <inkscape:perspective
       id="perspective4146-36"
       inkscape:persp3d-origin="12 : 8 : 1"
       inkscape:vp_z="24 : 12 : 1"
       inkscape:vp_y="0 : 1000 : 0"
       inkscape:vp_x="0 : 12 : 1"
       sodipodi:type="inkscape:persp3d" />
    <inkscape:perspective
       sodipodi:type="inkscape:persp3d"
       inkscape:vp_x="0 : 12 : 1"
       inkscape:vp_y="0 : 1000 : 0"
       inkscape:vp_z="24 : 12 : 1"
       inkscape:persp3d-origin="12 : 8 : 1"
       id="perspective4146-3-7" />
    <inkscape:perspective
       id="perspective4146-0"
       inkscape:persp3d-origin="12 : 8 : 1"
       inkscape:vp_z="24 : 12 : 1"
       inkscape:vp_y="0 : 1000 : 0"
       inkscape:vp_x="0 : 12 : 1"
       sodipodi:type="inkscape:persp3d" />
    <inkscape:perspective
       sodipodi:type="inkscape:persp3d"
       inkscape:vp_x="0 : 12 : 1"
       inkscape:vp_y="0 : 1000 : 0"
       inkscape:vp_z="24 : 12 : 1"
       inkscape:persp3d-origin="12 : 8 : 1"
       id="perspective4146-3-8" />
    <inkscape:perspective
       id="perspective4146-3"
       inkscape:persp3d-origin="12 : 8 : 1"
       inkscape:vp_z="24 : 12 : 1"
       inkscape:vp_y="0 : 1000 : 0"
       inkscape:vp_x="0 : 12 : 1"
       sodipodi:type="inkscape:persp3d" />
    <inkscape:perspective
       sodipodi:type="inkscape:persp3d"
       inkscape:vp_x="0 : 12 : 1"
       inkscape:vp_y="0 : 1000 : 0"
       inkscape:vp_z="24 : 12 : 1"
       inkscape:persp3d-origin="12 : 8 : 1"
       id="perspective4146" />
    <inkscape:perspective
       id="perspective4146-36-7"
       inkscape:persp3d-origin="12 : 8 : 1"
       inkscape:vp_z="24 : 12 : 1"
       inkscape:vp_y="0 : 1000 : 0"
       inkscape:vp_x="0 : 12 : 1"
       sodipodi:type="inkscape:persp3d" />
    <inkscape:perspective
       sodipodi:type="inkscape:persp3d"
       inkscape:vp_x="0 : 12 : 1"
       inkscape:vp_y="0 : 1000 : 0"
       inkscape:vp_z="24 : 12 : 1"
       inkscape:persp3d-origin="12 : 8 : 1"
       id="perspective4146-3-7-6" />
    <inkscape:perspective
       id="perspective4146-0-6"
       inkscape:persp3d-origin="12 : 8 : 1"
       inkscape:vp_z="24 : 12 : 1"
       inkscape:vp_y="0 : 1000 : 0"
       inkscape:vp_x="0 : 12 : 1"
       sodipodi:type="inkscape:persp3d" />
    <inkscape:perspective
       sodipodi:type="inkscape:persp3d"
       inkscape:vp_x="0 : 12 : 1"
       inkscape:vp_y="0 : 1000 : 0"
       inkscape:vp_z="24 : 12 : 1"
       inkscape:persp3d-origin="12 : 8 : 1"
       id="perspective4146-3-8-7" />
    <inkscape:perspective
       id="perspective4146-3-9"
       inkscape:persp3d-origin="12 : 8 : 1"
       inkscape:vp_z="24 : 12 : 1"
       inkscape:vp_y="0 : 1000 : 0"
       inkscape:vp_x="0 : 12 : 1"
       sodipodi:type="inkscape:persp3d" />
    <inkscape:perspective
       sodipodi:type="inkscape:persp3d"
       inkscape:vp_x="0 : 12 : 1"
       inkscape:vp_y="0 : 1000 : 0"
       inkscape:vp_z="24 : 12 : 1"
       inkscape:persp3d-origin="12 : 8 : 1"
       id="perspective4146-2" />
    <inkscape:perspective
       id="perspective4146-36-4"
       inkscape:persp3d-origin="12 : 8 : 1"
       inkscape:vp_z="24 : 12 : 1"
       inkscape:vp_y="0 : 1000 : 0"
       inkscape:vp_x="0 : 12 : 1"
       sodipodi:type="inkscape:persp3d" />
    <inkscape:perspective
       sodipodi:type="inkscape:persp3d"
       inkscape:vp_x="0 : 12 : 1"
       inkscape:vp_y="0 : 1000 : 0"
       inkscape:vp_z="24 : 12 : 1"
       inkscape:persp3d-origin="12 : 8 : 1"
       id="perspective4146-3-7-7" />
    <inkscape:perspective
       id="perspective4146-0-0"
       inkscape:persp3d-origin="12 : 8 : 1"
       inkscape:vp_z="24 : 12 : 1"
       inkscape:vp_y="0 : 1000 : 0"
       inkscape:vp_x="0 : 12 : 1"
       sodipodi:type="inkscape:persp3d" />
    <inkscape:perspective
       sodipodi:type="inkscape:persp3d"
       inkscape:vp_x="0 : 12 : 1"
       inkscape:vp_y="0 : 1000 : 0"
       inkscape:vp_z="24 : 12 : 1"
       inkscape:persp3d-origin="12 : 8 : 1"
       id="perspective4146-3-8-6" />
    <inkscape:perspective
       id="perspective4146-3-81"
       inkscape:persp3d-origin="12 : 8 : 1"
       inkscape:vp_z="24 : 12 : 1"
       inkscape:vp_y="0 : 1000 : 0"
       inkscape:vp_x="0 : 12 : 1"
       sodipodi:type="inkscape:persp3d" />
    <inkscape:perspective
       sodipodi:type="inkscape:persp3d"
       inkscape:vp_x="0 : 12 : 1"
       inkscape:vp_y="0 : 1000 : 0"
       inkscape:vp_z="24 : 12 : 1"
       inkscape:persp3d-origin="12 : 8 : 1"
       id="perspective4146-6" />
    <inkscape:perspective
       id="perspective4146-36-7-2"
       inkscape:persp3d-origin="12 : 8 : 1"
       inkscape:vp_z="24 : 12 : 1"
       inkscape:vp_y="0 : 1000 : 0"
       inkscape:vp_x="0 : 12 : 1"
       sodipodi:type="inkscape:persp3d" />
    <inkscape:perspective
       sodipodi:type="inkscape:persp3d"
       inkscape:vp_x="0 : 12 : 1"
       inkscape:vp_y="0 : 1000 : 0"
       inkscape:vp_z="24 : 12 : 1"
       inkscape:persp3d-origin="12 : 8 : 1"
       id="perspective4146-3-7-6-3" />
    <inkscape:perspective
       id="perspective4146-0-6-4"
       inkscape:persp3d-origin="12 : 8 : 1"
       inkscape:vp_z="24 : 12 : 1"
       inkscape:vp_y="0 : 1000 : 0"
       inkscape:vp_x="0 : 12 : 1"
       sodipodi:type="inkscape:persp3d" />
    <inkscape:perspective
       sodipodi:type="inkscape:persp3d"
       inkscape:vp_x="0 : 12 : 1"
       inkscape:vp_y="0 : 1000 : 0"
       inkscape:vp_z="24 : 12 : 1"
       inkscape:persp3d-origin="12 : 8 : 1"
       id="perspective4146-3-8-7-6" />
    <inkscape:perspective
       id="perspective4146-3-9-0"
       inkscape:persp3d-origin="12 : 8 : 1"
       inkscape:vp_z="24 : 12 : 1"
       inkscape:vp_y="0 : 1000 : 0"
       inkscape:vp_x="0 : 12 : 1"
       sodipodi:type="inkscape:persp3d" />
    <inkscape:perspective
       sodipodi:type="inkscape:persp3d"
       inkscape:vp_x="0 : 12 : 1"
       inkscape:vp_y="0 : 1000 : 0"
       inkscape:vp_z="24 : 12 : 1"
       inkscape:persp3d-origin="12 : 8 : 1"
       id="perspective4146-2-1" />
    <inkscape:perspective
       id="perspective4146-36-8"
       inkscape:persp3d-origin="12 : 8 : 1"
       inkscape:vp_z="24 : 12 : 1"
       inkscape:vp_y="0 : 1000 : 0"
       inkscape:vp_x="0 : 12 : 1"
       sodipodi:type="inkscape:persp3d" />
    <inkscape:perspective
       sodipodi:type="inkscape:persp3d"
       inkscape:vp_x="0 : 12 : 1"
       inkscape:vp_y="0 : 1000 : 0"
       inkscape:vp_z="24 : 12 : 1"
       inkscape:persp3d-origin="12 : 8 : 1"
       id="perspective4146-3-7-0" />
    <inkscape:perspective
       id="perspective4146-0-3"
       inkscape:persp3d-origin="12 : 8 : 1"
       inkscape:vp_z="24 : 12 : 1"
       inkscape:vp_y="0 : 1000 : 0"
       inkscape:vp_x="0 : 12 : 1"
       sodipodi:type="inkscape:persp3d" />
    <inkscape:perspective
       sodipodi:type="inkscape:persp3d"
       inkscape:vp_x="0 : 12 : 1"
       inkscape:vp_y="0 : 1000 : 0"
       inkscape:vp_z="24 : 12 : 1"
       inkscape:persp3d-origin="12 : 8 : 1"
       id="perspective4146-3-8-78" />
    <inkscape:perspective
       id="perspective4146-3-1"
       inkscape:persp3d-origin="12 : 8 : 1"
       inkscape:vp_z="24 : 12 : 1"
       inkscape:vp_y="0 : 1000 : 0"
       inkscape:vp_x="0 : 12 : 1"
       sodipodi:type="inkscape:persp3d" />
    <inkscape:perspective
       sodipodi:type="inkscape:persp3d"
       inkscape:vp_x="0 : 12 : 1"
       inkscape:vp_y="0 : 1000 : 0"
       inkscape:vp_z="24 : 12 : 1"
       inkscape:persp3d-origin="12 : 8 : 1"
       id="perspective4146-05" />
    <inkscape:perspective
       id="perspective4146-36-3"
       inkscape:persp3d-origin="12 : 8 : 1"
       inkscape:vp_z="24 : 12 : 1"
       inkscape:vp_y="0 : 1000 : 0"
       inkscape:vp_x="0 : 12 : 1"
       sodipodi:type="inkscape:persp3d" />
    <inkscape:perspective
       sodipodi:type="inkscape:persp3d"
       inkscape:vp_x="0 : 12 : 1"
       inkscape:vp_y="0 : 1000 : 0"
       inkscape:vp_z="24 : 12 : 1"
       inkscape:persp3d-origin="12 : 8 : 1"
       id="perspective4146-3-7-8" />
    <inkscape:perspective
       id="perspective4146-0-9"
       inkscape:persp3d-origin="12 : 8 : 1"
       inkscape:vp_z="24 : 12 : 1"
       inkscape:vp_y="0 : 1000 : 0"
       inkscape:vp_x="0 : 12 : 1"
       sodipodi:type="inkscape:persp3d" />
    <inkscape:perspective
       sodipodi:type="inkscape:persp3d"
       inkscape:vp_x="0 : 12 : 1"
       inkscape:vp_y="0 : 1000 : 0"
       inkscape:vp_z="24 : 12 : 1"
       inkscape:persp3d-origin="12 : 8 : 1"
       id="perspective4146-3-8-3" />
    <inkscape:perspective
       id="perspective4146-3-4"
       inkscape:persp3d-origin="12 : 8 : 1"
       inkscape:vp_z="24 : 12 : 1"
       inkscape:vp_y="0 : 1000 : 0"
       inkscape:vp_x="0 : 12 : 1"
       sodipodi:type="inkscape:persp3d" />
    <inkscape:perspective
       sodipodi:type="inkscape:persp3d"
       inkscape:vp_x="0 : 12 : 1"
       inkscape:vp_y="0 : 1000 : 0"
       inkscape:vp_z="24 : 12 : 1"
       inkscape:persp3d-origin="12 : 8 : 1"
       id="perspective4146-9" />
    <inkscape:perspective
       id="perspective4146-36-7-6"
       inkscape:persp3d-origin="12 : 8 : 1"
       inkscape:vp_z="24 : 12 : 1"
       inkscape:vp_y="0 : 1000 : 0"
       inkscape:vp_x="0 : 12 : 1"
       sodipodi:type="inkscape:persp3d" />
    <inkscape:perspective
       sodipodi:type="inkscape:persp3d"
       inkscape:vp_x="0 : 12 : 1"
       inkscape:vp_y="0 : 1000 : 0"
       inkscape:vp_z="24 : 12 : 1"
       inkscape:persp3d-origin="12 : 8 : 1"
       id="perspective4146-3-7-6-0" />
    <inkscape:perspective
       id="perspective4146-0-6-7"
       inkscape:persp3d-origin="12 : 8 : 1"
       inkscape:vp_z="24 : 12 : 1"
       inkscape:vp_y="0 : 1000 : 0"
       inkscape:vp_x="0 : 12 : 1"
       sodipodi:type="inkscape:persp3d" />
    <inkscape:perspective
       sodipodi:type="inkscape:persp3d"
       inkscape:vp_x="0 : 12 : 1"
       inkscape:vp_y="0 : 1000 : 0"
       inkscape:vp_z="24 : 12 : 1"
       inkscape:persp3d-origin="12 : 8 : 1"
       id="perspective4146-3-8-7-7" />
    <inkscape:perspective
       id="perspective4146-3-9-7"
       inkscape:persp3d-origin="12 : 8 : 1"
       inkscape:vp_z="24 : 12 : 1"
       inkscape:vp_y="0 : 1000 : 0"
       inkscape:vp_x="0 : 12 : 1"
       sodipodi:type="inkscape:persp3d" />
    <inkscape:perspective
       sodipodi:type="inkscape:persp3d"
       inkscape:vp_x="0 : 12 : 1"
       inkscape:vp_y="0 : 1000 : 0"
       inkscape:vp_z="24 : 12 : 1"
       inkscape:persp3d-origin="12 : 8 : 1"
       id="perspective4146-2-13" />
    <clipPath
       id="clipPath4160-3"
       clipPathUnits="userSpaceOnUse">
      <rect
         y="1023.3622"
         x="7"
         height="1"
         width="1"
         id="rect4162-58"
         style="opacity:1;fill:#f2f2f2;fill-opacity:1;stroke:none;stroke-opacity:1" />
    </clipPath>
    <clipPath
       clipPathUnits="userSpaceOnUse"
       id="clipPath4160-2">
      <rect
         style="opacity:1;fill:#f2f2f2;fill-opacity:1;stroke:none;stroke-opacity:1"
         id="rect4162-4"
         width="1"
         height="1"
         x="7"
         y="1023.3622" />
    </clipPath>
  </defs>
  <sodipodi:namedview
     id="base"
     pagecolor="#ffffff"
     bordercolor="#666666"
     borderopacity="1.0"
     inkscape:pageopacity="0.0"
     inkscape:pageshadow="2"
     inkscape:zoom="22.627416"
     inkscape:cx="5.4926209"
     inkscape:cy="10.264796"
     inkscape:document-units="px"
     inkscape:current-layer="layer1"
     showgrid="true"
     fit-margin-top="0"
     fit-margin-left="0"
     fit-margin-right="0"
     fit-margin-bottom="0"
     inkscape:window-width="1366"
     inkscape:window-height="709"
     inkscape:window-x="-4"
     inkscape:window-y="0"
     inkscape:window-maximized="1"
     inkscape:showpageshadow="false"
     inkscape:object-nodes="true"
     inkscape:snap-bbox="true">
    <inkscape:grid
       type="xygrid"
       id="grid4132" />
    <sodipodi:guide
       position="4,18"
       orientation="18,0"
       id="guide4138" />
    <sodipodi:guide
       position="5,3"
       orientation="0,18"
       id="guide4140" />
    <sodipodi:guide
       position="20,2.0000174"
       orientation="-18,0"
       id="guide4142" />
    <sodipodi:guide
       position="2,21"
       orientation="0,-18"
       id="guide4144" />
    <sodipodi:guide
       position="3,19.000017"
       orientation="16,0"
       id="guide4146" />
    <sodipodi:guide
       position="2,4"
       orientation="0,16"
       id="guide4148" />
    <sodipodi:guide
       position="21,20"
       orientation="-16,0"
       id="guide4150" />
    <sodipodi:guide
       position="2,20"
       orientation="0,-16"
       id="guide4152" />
  </sodipodi:namedview>
  <metadata
     id="metadata3874">
    <rdf:RDF>
      <cc:Work
         rdf:about="">
        <dc:format>image/svg+xml</dc:format>
        <dc:type
           rdf:resource="http://purl.org/dc/dcmitype/StillImage" />
        <dc:title></dc:title>
      </cc:Work>
    </rdf:RDF>
  </metadata>
  <g
     inkscape:label="Capa 1"
     inkscape:groupmode="layer"
     id="layer1"
     transform="translate(-326,-532.3622)">
    <g
       transform="translate(556.44091,-0.99999625)"
       id="layer1-6"
       inkscape:label="Capa 1">
      <path
         sodipodi:nodetypes="sscsssccsssscscscscccssscss"
         inkscape:connector-curvature="0"
         id="rect4173"
         d="m 344.5595,538.77621 c 1.1752,1.1752 1.17521,3.06743 0,4.24264 l -0.70711,0.70711 -8.46123,8.46123 c -1.56695,1.56695 -4.08991,1.56695 -5.65685,0 -1.56696,-1.56694 -1.56696,-4.0899 0,-5.65686 l 9.16834,-9.16834 0.7071,0.70711 -9.16834,9.16835 c -1.17522,1.17521 -1.17522,3.06743 0,4.24264 1.17521,1.17521 3.06743,1.17521 4.24264,0 l 9.16834,-9.16835 c 0.78348,-0.78348 0.78348,-2.04496 0,-2.82842 -0.78347,-0.78349 -2.04494,-0.78349 -2.82842,0 l -0.70711,0.7071 -8.46123,8.46123 c -0.39175,0.39175 -0.39174,1.0225 0,1.41422 0.39172,0.39174 1.02247,0.39174 1.41421,0 l 0.7071,-0.7071 7.75413,-7.75413 0.70711,0.7071 -8.46123,8.46123 c -0.78348,0.78349 -2.04496,0.78349 -2.82844,10e-6 -0.78347,-0.78347 -0.78347,-2.04495 1e-5,-2.82843 l 8.46123,-8.46123 0.70711,-0.70711 c 1.17521,-1.17521 3.06743,-1.17521 4.24264,0 z"
         style="color:#000000;text-decoration:none;text-decoration-line:none;text-decoration-style:solid;text-decoration-color:#000000;clip-rule:nonzero;display:inline;overflow:visible;visibility:visible;opacity:1;isolation:auto;mix-blend-mode:normal;color-interpolation:sRGB;color-interpolation-filters:linearRGB;solid-color:#000000;solid-opacity:1;fill:#f2f2f2;fill-opacity:1;fill-rule:nonzero;stroke:none;stroke-width:1;stroke-linecap:butt;stroke-linejoin:miter;stroke-miterlimit:4;stroke-dasharray:none;stroke-dashoffset:0;stroke-opacity:1;color-rendering:auto;image-rendering:auto;shape-rendering:auto;text-rendering:auto;enable-background:accumulate" />
    </g>
    <g
       transform="translate(1,-1)"
       id="layer1-1"
       inkscape:label="Capa 1">
      <path
         id="rect4144"
         transform="translate(326,534.3622)"
         d="m 1,3 0,1 0,8 0,6 0,0.414062 L 1,19 l 1,0 6,0 6,0 0,-1 -6,0 -6,0 0,-0.585938 0.4628906,-0.46289 6.2675782,-6.267578 1.4531252,1.451172 0.814453,0.814453 0.002,0 0.816406,-0.814453 1.453125,-1.451172 L 14.585938,12 16,12 13.976562,9.9765625 19.728516,4.2226562 19.951172,4 20,4 20,4.2226562 20,12 21,12 21,3 20.951172,3 20,3 19.537109,3 2.4628906,3 2,3 1,3 Z M 2,4 2.0488281,4 2.2714844,4.2226562 8.0234375,9.9765625 2,16 2,12 2,4.2226562 2,4 Z M 3.4628906,4 18.537109,4 11,11.537109 3.4628906,4 Z"
         style="opacity:1;fill:#f2f2f2;fill-opacity:1;stroke:none;stroke-width:2.79999995;stroke-miterlimit:4;stroke-dasharray:none;stroke-opacity:0.55026455"
         inkscape:connector-curvature="0" />
      <path
         id="rect4176"
         transform="translate(326,534.3622)"
         d="m 15,13 0,6 1,0 0,-2 2,-1 0,2 4,-2 -4,-1 0,-1 -2,-1 -1,0 z"
         style="opacity:1;fill:#f2f2f2;fill-opacity:1;stroke:none;stroke-width:2.79999995;stroke-miterlimit:4;stroke-dasharray:none;stroke-opacity:0.55026455"
         inkscape:connector-curvature="0" />
    </g>
  </g>
</svg>
